icons/abif.svg

<!--
  - The MIT License (MIT)
  -
  - Copyright (c) 2015-2024 Elior "Mallowigi" Boukhobza
  -
  - Permission is hereby granted, free of charge, to any person obtaining a copy
  - of this software and associated documentation files (the "Software"), to deal
  - in the Software without restriction, including without limitation the rights
  - to use, copy, modify, merge, publish, distribute, sublicense, and/or sell
  - copies of the Software, and to permit persons to whom the Software is
  - furnished to do so, subject to the following conditions:
  -
  - The above copyright notice and this permission notice shall be included in all
  - copies or substantial portions of the Software.
  -
  - THE SOFTWARE IS PROVIDED "AS IS", WITHOUT WARRANTY OF ANY KIND, EXPRESS OR
  - IMPLIED, INCLUDING BUT NOT LIMITED TO THE WARRANTIES OF MERCHANTABILITY,
  - FITNESS FOR A PARTICULAR PURPOSE AND NONINFRINGEMENT. IN NO EVENT SHALL THE
  - AUTHORS OR COPYRIGHT HOLDERS BE LIABLE FOR ANY CLAIM, DAMAGES OR OTHER
  - LIABILITY, WHETHER IN AN ACTION OF CONTRACT, TORT OR OTHERWISE, ARISING FROM,
  - OUT OF OR IN CONNECTION WITH THE SOFTWARE OR THE USE OR OTHER DEALINGS IN THE
  - SOFTWARE.
  -
  -->

<svg  xmlns="http://www.w3.org/2000/svg" version="1.1" viewBox="0 0 512 512" width="16px" height="16px">
  <path fill="#FF7043" data-iconColor="ABIF"
        d="M225.6244965,199.736618c47.6435699,36.1535797,68.9401093,62.9955292,54.6698151,117.8661652C219.7318573,278.4030457,215.5062256,238.1420898,225.6244965,199.736618z M212.7091522,160.5011139c3.8184204-12.9030457,7.8835907-28.7914124,7.1874084-48.6590424h-41.0063934C181.6753845,137.4302979,192.5904694,143.9138641,212.7091522,160.5011139z M294.042511,356.3984985c-4.4627686,14.1625366-7.9107361,27.4100647-7.8447876,40.6025391h39.9198303C320.2897949,379.3958435,308.3250427,368.3865051,294.042511,356.3984985z M273.0516052,342.3658752c-5.5786743,17.1968689-11.5091553,35.5933228-11.7597046,54.6351624h-51.1747894l-16.0116272-54.4907227l-91.4592972,0.0003662L84.5207901,400.160675L0,397.0010376l104.2685928-285.1589661h49.7338791c3.7441406,38.4765015,26.056015,55.4193726,50.6607056,73.0437927C183.1671906,241.4235992,204.3161316,298.1802979,273.0516052,342.3658752z M179.8019409,284.0879211l-27.1503296-98.8843994l-31.1514511,98.8843994H179.8019409z M511.9992371,326.8158569c-0.1812439,35.4790649-26.2930298,69.278656-65.6978455,70.1851807h-95.9222412c-4.5030212-27.8877869-25.825531-48.1927795-48.18573-64.8045349c25.864502-68.4404602-13.7938843-122.6400757-68.7185669-156.8739624c6.0916443-17.8879395,11.3961639-37.3691559,10.9113464-63.4804688h54.9912109c53.083252,0,103.0306396-1.0363159,139.1052856,37.2108765c26.9330139,28.55513,24.2663269,70.8863068-8.3428345,97.5012207C480.0718079,250.5428162,512.180481,291.3368225,511.9992371,326.8158569z M372.3955383,216.9145508c27.9433594,0.230896,30.2527771-46.880249-22.4009094-47.5730591h-44.1089783l13.7767334,47.7244873L372.3955383,216.9145508z M392.7165833,289.6802979l-51.9684143,0.4913025l15.6501465,50.4737854h57.5412903C448.7632446,334.0692749,437.5539551,291.0253906,392.7165833,289.6802979z"/>
</svg>

<svg xmlns="http://www.w3.org/2000/svg" viewBox="0 0 512 512"><path fill="#ff7043" d="M225.624 199.737c47.644 36.153 68.94 62.995 54.67 117.866-60.562-39.2-64.788-79.46-54.67-117.866M212.71 160.5c3.819-12.903 7.884-28.791 7.188-48.659H178.89c2.785 25.588 13.7 32.072 33.82 48.66m81.334 195.897c-4.463 14.163-7.911 27.41-7.845 40.603h39.92c-5.828-17.605-17.793-28.614-32.075-40.603m-20.991-14.032c-5.58 17.197-11.51 35.593-11.76 54.635h-51.175l-16.012-54.49h-91.459l-18.125 57.65L0 397l104.269-285.159h49.733c3.745 38.477 26.056 55.42 50.661 73.044-21.496 56.538-.347 113.294 68.389 157.48m-93.25-58.278-27.15-98.884-31.152 98.884zm332.197 42.728c-.181 35.479-26.293 69.279-65.698 70.185H350.38c-4.503-27.888-25.825-48.193-48.186-64.804 25.865-68.441-13.793-122.64-68.718-156.874 6.091-17.888 11.396-37.37 10.911-63.48h54.991c53.084 0 103.031-1.037 139.106 37.21 26.933 28.555 24.266 70.886-8.343 97.501 49.932 3.989 82.04 44.783 81.86 80.262m-139.605-109.9c27.943.23 30.252-46.88-22.401-47.574h-44.11l13.777 47.725zm20.32 72.765-51.968.492 15.65 50.473h57.542c34.823-6.576 23.614-49.62-21.223-50.965" data-iconColor="ABIF"/></svg>
